src/food-drink/food-fruit/1F349.svg

<svg id="emoji" viewBox="0 0 72 72" xmlns="http://www.w3.org/2000/svg">
  <g id="grid">
    <path fill="#b3b3b3" d="M68,4V68H4V4H68m4-4H0V72H72V0Z"/>
    <path fill="none" stroke="#00a5ff" stroke-miterlimit="10" stroke-width="0.1" d="M12.923,10.9583H59.0769A1.9231,1.9231,0,0,1,61,12.8814V59.0352a1.9231,1.9231,0,0,1-1.9231,1.9231H12.9231A1.9231,1.9231,0,0,1,11,59.0352V12.8813A1.923,1.923,0,0,1,12.923,10.9583Z"/>
    <rect x="16" y="4" rx="2.2537" width="40" height="64" fill="none" stroke="#00a5ff" stroke-miterlimit="10" stroke-width="0.1"/>
    <rect x="16" y="4" rx="2.2537" width="40" height="64" transform="translate(72) rotate(90)" fill="none" stroke="#00a5ff" stroke-miterlimit="10" stroke-width="0.1"/>
    <circle cx="36" cy="36" r="29" fill="none" stroke="#00a5ff" stroke-miterlimit="10" stroke-width="0.1"/>
  </g>
  <g id="color">
    <path fill="#B1CC33" stroke="none" stroke-linejoin="round" stroke-miterlimit="10" stroke-width="2" d="M55.2257,56.7807 c-10.9878,10.9766-28.7798,10.9766-39.7676,0c-10.9765-10.9878-10.9765-28.7797,0-39.7675l2.6542,2.6542 c-9.5258,9.5145-9.5258,24.9447,0,34.4592c9.5145,9.5258,24.9447,9.5258,34.4592,0L55.2257,56.7807z"/>
    <path fill="#EA5A47" stroke="#EA5A47" stroke-linecap="round" stroke-linejoin="round" stroke-miterlimit="10" stroke-width="2" d="M52.5715,54.1265c-9.5145,9.5258-24.9447,9.5258-34.4592,0c-9.5258-9.5145-9.5258-24.9447,0-34.4592L52.5715,54.1265"/>
    <path fill="#EA5A47" stroke="none" stroke-linecap="round" stroke-linejoin="round" stroke-miterlimit="10" stroke-width="2" d="M49.5241,56.7181c-9.5196,6.8373-22.857,5.9734-31.4119-2.5916c-8.6198-8.6097-9.4396-22.0632-2.4594-31.5942"/>
  </g>
  <g id="hair"/>
  <g id="skin"/>
  <g id="skin-shadow"/>
  <g id="line">
    <path fill="none" stroke="#000000" stroke-linejoin="round" stroke-miterlimit="10" stroke-width="2" d="M55.2257,56.7807 c-10.9878,10.9766-28.7798,10.9766-39.7676,0c-10.9765-10.9878-10.9765-28.7797,0-39.7675l2.6542,2.6542 c-9.5258,9.5145-9.5258,24.9447,0,34.4592c9.5145,9.5258,24.9447,9.5258,34.4592,0L55.2257,56.7807z"/>
    <line x1="17.5157" x2="53.7223" y1="19.0707" y2="55.2773" fill="none" stroke="#000000" stroke-linecap="round" stroke-linejoin="round" stroke-miterlimit="10" stroke-width="2"/>
    <path fill="none" stroke="#000000" stroke-linecap="round" stroke-linejoin="round" stroke-miterlimit="10" stroke-width="2" d="M49.5241,56.7181c-9.5196,6.8373-22.857,5.9734-31.4119-2.5916c-8.6198-8.6097-9.4396-22.0632-2.4594-31.5942"/>
    <ellipse cx="31.8301" cy="46.9072" rx="1.687" ry="0.8435" transform="matrix(0.7071 -0.7071 0.7071 0.7071 -23.8456 36.2461)" fill="#000000" stroke="none"/>
    <ellipse cx="44.5541" cy="53.2691" rx="1.687" ry="0.8435" transform="matrix(0.7071 -0.7071 0.7071 0.7071 -24.6174 47.1066)" fill="#000000" stroke="none"/>
    <ellipse cx="31.8301" cy="54.8596" rx="1.687" ry="0.8435" transform="matrix(0.7071 -0.7071 0.7071 0.7071 -29.4688 38.5753)" fill="#000000" stroke="none"/>
    <ellipse cx="25.8167" cy="40.8938" rx="1.687" ry="0.8435" transform="matrix(0.7071 -0.7071 0.7071 0.7071 -21.3547 30.2327)" fill="#000000" stroke="none"/>
    <ellipse cx="19.4548" cy="28.1698" rx="1.687" ry="0.8435" transform="matrix(0.7071 -0.7071 0.7071 0.7071 -14.2209 22.0073)" fill="#000000" stroke="none"/>
    <ellipse cx="17.8643" cy="40.8938" rx="1.687" ry="0.8435" transform="matrix(0.7071 -0.7071 0.7071 0.7071 -23.684 24.6094)" fill="#000000" stroke="none"/>
    <ellipse cx="22.2812" cy="50.0862" rx="1.687" ry="0.8435" transform="matrix(0.7071 -0.7071 0.7071 0.7071 -28.8903 30.4251)" fill="#000000" stroke="none"/>
  </g>
</svg>

<svg viewBox="0 0 72 72" xmlns="http://www.w3.org/2000/svg"><path fill="#b3b3b3" d="M68 4v64H4V4h64m4-4H0v72h72V0z"/><path fill="none" stroke="#00a5ff" stroke-miterlimit="10" stroke-width=".1" d="M12.923 10.958h46.154A1.923 1.923 0 0161 12.881v46.154a1.923 1.923 0 01-1.923 1.923H12.923A1.923 1.923 0 0111 59.035V12.881a1.923 1.923 0 011.923-1.923z"/><rect x="16" y="4" rx="2.254" width="40" height="64" fill="none" stroke="#00a5ff" stroke-miterlimit="10" stroke-width=".1"/><rect x="16" y="4" rx="2.254" width="40" height="64" transform="rotate(90 36 36)" fill="none" stroke="#00a5ff" stroke-miterlimit="10" stroke-width=".1"/><circle cx="36" cy="36" r="29" fill="none" stroke="#00a5ff" stroke-miterlimit="10" stroke-width=".1"/><g stroke-linecap="round" stroke-miterlimit="10" stroke-width="6" stroke="#fff" fill="none" stroke-linejoin="round"><path d="M55.226 56.78c-10.988 10.977-28.78 10.977-39.768 0-10.976-10.987-10.976-28.779 0-39.767l2.654 2.654c-9.525 9.515-9.525 24.945 0 34.46 9.515 9.525 24.945 9.525 34.46 0l2.654 2.654zm-37.71-37.709l36.206 36.206"/><path d="M49.524 56.718c-9.52 6.837-22.857 5.973-31.412-2.592-8.62-8.61-9.44-22.063-2.46-31.594"/><ellipse cx="31.83" cy="46.907" rx="1.687" ry=".844" transform="rotate(-45.001 31.83 46.908)"/><ellipse cx="44.554" cy="53.269" rx="1.687" ry=".844" transform="rotate(-45.001 44.554 53.27)"/><ellipse cx="31.83" cy="54.86" rx="1.687" ry=".844" transform="rotate(-45.001 31.83 54.86)"/><ellipse cx="25.817" cy="40.894" rx="1.687" ry=".844" transform="rotate(-45.001 25.816 40.894)"/><ellipse cx="19.455" cy="28.17" rx="1.687" ry=".844" transform="rotate(-45.001 19.454 28.17)"/><ellipse cx="17.864" cy="40.894" rx="1.687" ry=".844" transform="rotate(-45.001 17.864 40.894)"/><ellipse cx="22.281" cy="50.086" rx="1.687" ry=".844" transform="rotate(-45.001 22.28 50.087)"/></g><path fill="#B1CC33" d="M55.226 56.78c-10.988 10.977-28.78 10.977-39.768 0-10.976-10.987-10.976-28.779 0-39.767l2.654 2.654c-9.525 9.515-9.525 24.945 0 34.46 9.515 9.525 24.945 9.525 34.46 0l2.654 2.654z"/><path fill="#EA5A47" stroke="#EA5A47" stroke-linecap="round" stroke-linejoin="round" stroke-miterlimit="10" stroke-width="2" d="M52.572 54.127c-9.515 9.525-24.945 9.525-34.46 0-9.526-9.515-9.526-24.945 0-34.46l34.46 34.46"/><path fill="#EA5A47" d="M49.524 56.718c-9.52 6.837-22.857 5.973-31.412-2.592-8.62-8.61-9.44-22.063-2.46-31.594"/><path fill="none" stroke="#000" stroke-linejoin="round" stroke-miterlimit="10" stroke-width="2" d="M55.226 56.78c-10.988 10.977-28.78 10.977-39.768 0-10.976-10.987-10.976-28.779 0-39.767l2.654 2.654c-9.525 9.515-9.525 24.945 0 34.46 9.515 9.525 24.945 9.525 34.46 0l2.654 2.654z"/><path fill="none" stroke="#000" stroke-linecap="round" stroke-linejoin="round" stroke-miterlimit="10" stroke-width="2" d="M17.516 19.071l36.206 36.206m-4.198 1.441c-9.52 6.837-22.857 5.973-31.412-2.592-8.62-8.61-9.44-22.063-2.46-31.594"/><ellipse cx="31.83" cy="46.907" rx="1.687" ry=".844" transform="rotate(-45.001 31.83 46.908)"/><ellipse cx="44.554" cy="53.269" rx="1.687" ry=".844" transform="rotate(-45.001 44.554 53.27)"/><ellipse cx="31.83" cy="54.86" rx="1.687" ry=".844" transform="rotate(-45.001 31.83 54.86)"/><ellipse cx="25.817" cy="40.894" rx="1.687" ry=".844" transform="rotate(-45.001 25.816 40.894)"/><ellipse cx="19.455" cy="28.17" rx="1.687" ry=".844" transform="rotate(-45.001 19.454 28.17)"/><ellipse cx="17.864" cy="40.894" rx="1.687" ry=".844" transform="rotate(-45.001 17.864 40.894)"/><ellipse cx="22.281" cy="50.086" rx="1.687" ry=".844" transform="rotate(-45.001 22.28 50.087)"/></svg>
